material/.icons/material/van-passenger.svg

<svg xmlns="http://www.w3.org/2000/svg" viewBox="0 0 24 24"><path d="M3 7c-1.11 0-2 .89-2 2v8h2a3 3 0 003 3 3 3 0 003-3h6a3 3 0 003 3 3 3 0 003-3h2v-4c0-1.11-.89-2-2-2l-3-4H3m0 1.5h4V11H3V8.5m6 0h4V11H9V8.5m6 0h2.5l1.96 2.5H15V8.5m-9 7A1.5 1.5 0 017.5 17 1.5 1.5 0 016 18.5 1.5 1.5 0 014.5 17 1.5 1.5 0 016 15.5m12 0a1.5 1.5 0 011.5 1.5 1.5 1.5 0 01-1.5 1.5 1.5 1.5 0 01-1.5-1.5 1.5 1.5 0 011.5-1.5z"/></svg>

<?xml version="1.0" encoding="UTF-8"?><!DOCTYPE svg PUBLIC "-//W3C//DTD SVG 1.1//EN" "http://www.w3.org/Graphics/SVG/1.1/DTD/svg11.dtd"><svg xmlns="http://www.w3.org/2000/svg" xmlns:xlink="http://www.w3.org/1999/xlink" version="1.1" id="mdi-van-passenger" width="24" height="24" viewBox="0 0 24 24"><path d="M3,7C1.89,7 1,7.89 1,9V17H3A3,3 0 0,0 6,20A3,3 0 0,0 9,17H15A3,3 0 0,0 18,20A3,3 0 0,0 21,17H23V13C23,11.89 22.11,11 21,11L18,7H3M3,8.5H7V11H3V8.5M9,8.5H13V11H9V8.5M15,8.5H17.5L19.46,11H15V8.5M6,15.5A1.5,1.5 0 0,1 7.5,17A1.5,1.5 0 0,1 6,18.5A1.5,1.5 0 0,1 4.5,17A1.5,1.5 0 0,1 6,15.5M18,15.5A1.5,1.5 0 0,1 19.5,17A1.5,1.5 0 0,1 18,18.5A1.5,1.5 0 0,1 16.5,17A1.5,1.5 0 0,1 18,15.5Z" /></svg>
